X:83
T: Reiters Abschied
N: A0435
O: Europa, Mitteleuropa, Deutschland
N: Newsidler, Lautenbuch 1536 ua.
R: Romanze, Ballade, Lied, Jaegerlied
M: 4/2
L: 1/8
K: C
C4 | C4G,4C4D4 | E6DCD4D4 | C16 | z4
E4E4E4 | D2C2B,2A,2G,4C4 | D8C4
C4 | C4G,4C4D4 | E6DCD4D4 | C16 | z4
E4E4E4 | D2C2B,2A,2G,4C4 | D8C8 | z4
E4E4D4 | E8z4G4 | F4D4E8 | z4
C4C4E4 | D2C2B,2A,2G,4C4 | D8C4

@@@ Tune index: 396
